X:1
T:Celebrate dominum
T:Christopher Gibbons (1615–1676) 
T:Celebrate dominum
T:Copyright © 
T:Copyright © 
T:Copyright © 
T:Copyright © 
C:Christopher Gibbons (1615–1676)
C:
Z:Copyright ©
%%score [ 1 2 ] 3
L:1/8
M:2/2
K:F
V:1 treble nm="Soprano" snm="S."
V:2 bass nm="Bass" snm="B."
V:3 bass nm="Continuo" snm="Cont."
V:1
 z4 z2 CC | FFAA c2 cd | e (f/e/) (d/c/) (B/A/) (A G3) | A4 z4 | z8 | z4 z2 EF | GAA>G A2 A=B | %7
w: Ce- le-|bra- te do- mi- num, pro- cla-|ma- te _ no- * men _ e- *|jus.||Ce- le-|bra- te do- mi- num, pro- cla-|
 ^c (d/c/) (B/A/) (G/F/) (F E3) | D4 dddd | dddd (d3 ^c) | d2 dd _ee/e/ee | _e2 dc (c3 =B) | %12
w: ma- te _ no- * men _ e- *|jus. No- tas fa- ci-|te\_ac- ti- o- nes e- *|jus no- tas fa- ci- te ac- ti-|o- nes _ e- *|
"^" c8 |"^" c6 c2 ^c2 c2 | d4 d8 |[M:2/2] z4 z2 de | f2 _B2 c4 | B4 z =BBB | =BBBB dddd | %19
w: jus.|Ca- ni- te Je-|ho- vam|et lau-|da- te e-|um. Con- fa- bu-|la- mi- ni de om- ni- bus mi-|
 e3 B c2 =B2 | A4 z4 | z4 z2 cc | c3 A d2 G2 | z4 dddd | _e2 dc e2 _B_A | G2 (F!courtesy!_E) z4 | %26
w: ra- cu- lis e-|jus.|Quae- ri-|te Je- ho- vam,|quae- ri- te Je-|ho- vam _ et ro- bur|e- jus. _|
 z8 | z4 =eeee | eeee f2 (ed) | z8 | z4 d2 dd | e2 (dc) (fe) (dc) | =B4 A4 | z8 | z2 e2 eedc | %35
w: |Quae- ri- te fa-|ciem\_e- jus in e- ter- num. _||Il- le Je-|ho- va _ de- * us _|nos- ter.||In to- ta ter- *|
 (=BA) (Bc/d/) ^G2 AB | =B3 A A4 | z4 z2 d2 | d c2 B e2 A2- | A2 f3 g (^cd) | e4 z4 | z8 | %42
w: ra _ sunt _ _ e- jus ju-|di- ci- a.|De-|cor et ma- jes- tas|_ co- ram e- *|o.||
 z4 z2 c2 | A3 d BABG | c2 FG G4 | F4 z4 | z8 |"^" z8 |[M:3/2]"^" e6 e2 e4 | f4 A8 | %50
w: Ro-|bur et gau- di- um in|lo- co il- li-|us.|||Mag- nus Je-|ho- va,|
 d6 d2 e2 fg | c6 (=B2 !fermata!A4) |[M:2/2] z4 z ccB | AAdc =BBcd | e2 (ef) A G3 | A4 z4 | z8 | %57
w: mag- nus Je- * *|ho- va. _|Et est lau-|dan- dus re- ve- ren- dus su- per|om- nes _ de- *|os.||
 z8 | z4 c2 B2 | A2 c2 E2 G2- | G2 F2 E4 | D4 z2 cc | f2 d2 _e2 =e2 | fcdA G4 | F8 || z2 cc AA=BB | %66
w: |Et est|lau- dan- dus re-|* ve- ren-|dus su- per|om- nes de- os,|su- per om- nes de-|os.|Hal- le- lu- jah, hal- le-|
 cC (G/A/) (B/c/) (B/A/ G3) | F4 z4 | z2 ^cc ddee | ffcB AAff | fdgc (cd/e/ d2) | c2 ee eegg | %72
w: lu- jah, hal- * le- * lu- * *|jah,|hal- le- lu- jah, hal- le-|lu- jah, hal- le- lu- jah, hal- le-|lu- jah, hal- le- lu- * * *|jah, hal- le- lu- jah, hal- le-|
 gead d3 ^c | d4 z4 | z2 cc _eedd | e (d/c/) (e/f/) (c/d/) (A G3) | F16 |] %77
w: lu- jah, hal- le- lu- *|jah,|hal- le- lu- jah, hal- le-|lu- jah, _ hal- * le- * lu- *|jah.|
V:2
 z8 | z8 | z4 z2 C,C, | F,F,A,A, D, (D/C/) (B,A,/G,/) | C>B, (A,/G,/) (F,/E,/) G,4 | C,6 C,C, | %6
w: ||Ce- le-|bra- te do- mi- num, pro- * cla- * *|ma- te no- * men _ e-|jus. Ce- le-|
 CCB,B, A,2 F,D, | A,F, (G,/F,/) (G,/A,/) A,,4 | D,4 B,,B,,B,B, | B,A,G,F, _E,4 | %10
w: bra- te do- mi- num, pro- cla-|ma- te no- * men _ e-|jus. No- tas fa- ci-|te\_ac- ti- o- nes e-|
 D,2 =B,,B,, C,C,/C,/C,C, | C,2 _E,2 G,4 | C,8 | C6 B,2 A,2 A,2 | D,4 D,8 |[M:2/2] z4 z2 B,B, | %16
w: jus no- tas fa- ci- te ac- ti-|o- nes e-|jus.|Ca- ni- te Je-|ho- vam|et lau-|
 A,2 B,2 F,4 | B,,4 z4 | z8 | z4 z EEE | (D/C)B,<A,G,/ F,>E,D,>C, | B,,B,,A,,B,, C,4 | F,,4 z4 | %23
w: da- te e-|um.||Con- fa- bu-|la- * mi- ni de om- ni- bus mi-|ra- cu- lis e- *|jus.|
 z8 | z8 | z4 G,G,G,G, | C2 C,2 z A,F,D, | A, A,,3 z4 | z8 | ^F,/F,/F,F,F, F,F,F,F, | G,4 G,,4 | %31
w: ||Quae- ri- te Je-|ho- vam et ro- bur|e- jus.||Quae- ri- te fa- ciem e- jus in e-|ter- num.|
 z8 | ^G,2 G,G, A,2 (=G,F,) | B,2 A,/G,/F,/E,/ G,4 | C,4 z4 | z8 | z EEE (D/C) (B,<A,)G,/ | %37
w: |Il- le Je- ho- vah _|de- us _ _ _ nos-|ter.||In to- ta ter- * ra _ sunt|
 F,2 B,,C, D,3 D, | G,,4 z4 | z8 | z2 A,3 A,G,F, | B,2 =B,2 C4 | C,2 A,,2 C,4 | F,,4 z4 | %44
w: e- jus ju- di- ci-|a||De- cor et ma-|jes- tas co-|ram _ e-|o.|
 z4 z2 C2 | A,3 D B,A,B,G, | C2 E,F, G,4 | !fermata!C,8 |[M:3/2] C6 C2 C4 | F,4 F,8 | B,6 A,2 G,4 | %51
w: Ro-|bor et gau- di- um in|lo- co il- li-|us.|Mag- nus Je-|ho- va,|mag- nus Je-|
 A,4 A,,8 |[M:2/2] z8 | z8 | z4 z CCB, | A,A,DC B,B,CD | E2 A,2 A,3 ^G, | A,4 z4 | z2 F,2 E,2 D,2 | %59
w: ho- va.|||Et est lau-|dan- dus re- ve- ren- dus su- per|om- nes de- *|os.|Et est lau-|
 F,2 G,,2 B,,2 B,2 | A,2 G,2 z2 A,A, | D2 G,2 C4 | A,2 =B,,2 C,2 C,2 | (A,,2 B,,2) C,4 | F,,8 || %65
w: dan- dus re- ve-|ren- dus su- per|om- nes de-|os, su- per om-|nes _ de-|os.|
 z8 | z4 z2 CC | A,A,=B,B, CE,F,G, | A,A,,A,G, F,D,^C,A,, | F,,D,,E,E, F,F,D,D, | G,G,E,E, G,4 | %71
w: |Hal- le-|lu- jah, hal- le- lu- jah, ha- le-|lu- jah, hal- le- lu- jah, hal- le-|lu- jah, hal- le- lu- jah, hal- le-|lu- jah, hal- le- lu-|
 C,2 C,C, CC=B,B, | ^CCF,F, A,4 | D,6 G,G, | _B,B,A,A, CC=B,,B,, | C,C,A,,B,, C,4 | F,,16 |] %77
w: jah, hal- le- lu- jah, hal- le-|lu- jah, hal- le- lu-|jah, hal- le-|lu- jah, hal- le- lu- jah, hal- le-|lu- jah, hal- le- lu-|jah.|
V:3
 F,8 | F,6 E,D, | C,A,, B,,2 C,2 C,C, | F,F,A,A, D,D/C/ B,A,/G,/ | C>B, A,/G,/F,/E,/ G,4 | %5
w: |* 6 6|6 * * 4 3 *||* * * * 6 * *|
 C,6 C,C, | CCB,B, A,2 F,D, | A,F, G,/F,/G,/A,/ A,,4 | D,4 B,,B,,B,B, | B,A,G,F, _E,4 | %10
w: |* * 7 6 * 6 *|6 * * * * * 4||* * * * 76|
 D,2 =B,,2 C,4 | C,2 _E,2 G,4 | C,8 | C6 B,2 A,2 A,2 | D,4 D,8 |[M:2/2] D,2 B,,2 A,,2 B,,2 | %16
w: * 6 3|* * 43||||* * 6 *|
 A,2 B,2 F,4 | B,,4 G,,4 | G,6 F,2 | E,2 D,2 E,4 | A,,4 F,E,D,C, | B,,B,, A,,2 C,4 | F,,4 B,,3 C, | %23
w: * * 43|* 3||7 6 43||6 * 6 43|* 6 *|
 D,4 =B,,4 | C,6 D,2 | _E,4 G,G,G,G, | C2 C,2 z A,F,D, | A, A,,3 A,,4- | A,,4 D,4 | ^F,8 | %30
w: * 6|* 6||3 * 6 * *|3 * 3|||
 G,2 G,,2 G,,4 | C,4 D,4 | E,4 A,2 =G,F, | B,2 A,/G,/F,/E,/ G,4 | C,6 E,2 | F,2 D,2 E,3 D, | %36
w: |36 *|3 * * *|* 6 * * * 43|* 6|* 6 * *|
 E,4 A,,4 | F,2 B,,C, D,4 | G,,2 E,2 ^C,4 | D,3 C, _B,,4 | A,,4 D,,4 | G,,3 F,, E,,2 F,,2 | %42
w: 43 *|* 6 * 43||||3 3 6 *|
 C,2 A,,2 C,4 | F,,2 ^F,,2 G,,3 F,, | E,,2 F,,2 C,4 | F,,2 ^F,,2 G,,3 F,, | C2 E,F, G,4 | %47
w: 6 * 43||6 * 43|||
 !fermata!C,8 |[M:3/2] C,6 C,2 C,4 | F,4 F,8 | B,6 A,2 G,4 | A,4 A,,8 |[M:2/2] D,4 E,4 | %53
w: |||* * 6|3 *|* 6|
 F,2 D,2 G,2 E,D, | C,2 A,,2 C,4 | F,,2 D,2 G,2 E,D, | C,3 D, C,2 B,,2 | A,,4 G,,2 F,,2 | %58
w: 3 * * 6 6|6 * 43|* * * 6 6|* * * 76||
 E,,2 F,2 E,2 D,2 | F,2 G,,2 B,,2 B,2 | A,2 G,2 A,2 A,A, | D2 G,2 C4 | A,2 =B,,2 C,2 C,2 | %63
w: 6 * 6 6|* 6 * 6|||6 * 3 3|
 (A,,2 B,,2) C,4 | F,,8 || F,6 D,2 | E,2 F,2 C,4 | F,2 D,2 E,2 F,G, | A,A,,A,G, F,D,^C,A,, | %69
w: 6 * 43||* 6|6 * 43|* 6 6 6 *|3 * * * 6 * 6 *|
 F,,D,, E,2 F,2 D,2 | G,2 E,2 G,4 | C,2 C,C, C2 =B,2 | ^C2 F,2 A,4 | D,6 G,G, | _B,2 A,2 C2 =B,,2 | %75
w: 3 * 6 * *|* 6 43|* * * * 6|6 6 43||* * * 6|
 C,2 A,,B,, C,4 | F,,16 |] %77
w: * 6 * 43||

